X:20
T:8. Ronde
T:mille ducas en vostre bouce
C:Tielman Susato
B:Tielman Susato: Danserye (1551) no. 20
R:Ronde
Z:Transcribed by Frank Nordberg - http://www.musicaviva.com
F:http://abc.musicaviva.com/tunes/susato-tielman/susato-1551-20.abc
M:4/2
L:1/2
K:Gdor
V:1
GG/G/AA|BBcA|AABA/G/|^F/E/G/F/G2::AA/A/ A/G/A/B/|c/B/A/G/F2|D/E/F/G/ A/F/B|
V:2
DD/E/CF|DGGF|FFDE|D/C/DB,2::FF/F/FF|FCD2|FF/F/FD|
V:3
B,B,/C/A,D|B,DEC|CDB,C/B,/|A,/G,/A,G,2::CC/C/ C/B,/A,/G,/|F,>G,A,2|B,B,/B,/A,B,|
V:4
G,G,/C,/F,D,|G,G,C,F,|F,D,G,C,|D,/E,/D,G,,2::F,F,/F,/F,F,/G,/|A,/G,/F,/E,/D,2|B,,/C,/D,/E,/F,G,|
%
V:1
A/G/B/A/B2::BB/B/ G/B/A/G/|AGF2|GG/G/GF|GF/G/A>D|F/F/G/A/BA/G/|^F/G/G/^F/G2:|
V:2
FFD2::GG/G/ E/D/F/G/|FDD2|DD/D/DD|DD/E/F>D|DEFE|D/C/DD2:|
V:3
CCB,2::DD/D/ C/B,/C|A,B,A,2|B,B,/B,/B,A,|B,A,/B,/C>B,|A,CDC/B,/|A,/G,/A,G,2:|
V:4
F,F,B,,2::G,G,/G,/ C,/G,/F,/E,/|F,G,D,2|G,G,/G,/G,D,|G,D,/G,/F,>B,,|D,C,B,,C,|D,/_E,/D,G,,2:|
W:
W:
W:  From Musica Viva - http://www.musicaviva.com
W:  the Internet center for free sheet music downloads.
